!!!!SEGMENT: pl-wtm--r-2306--pc0_troschel-wilhelm--spiew-mysliwski-pc0.krn
!!!cenid: 18xx:2265a
!!!COM: Troschel, Wilhelm
!!!COM-rismID: pe30024099
!!!CDT: 1823/08/23-1887/03/02
!!!CNT: Polish
!!!OTL: Śpiew myśliwski
!!!PDT:
!!!AGN:
!!!SMS-siglum: PL-Wtm
!!!SMS-shelfmark: R 2306
!!!SMS-shelfwork: W
!!!SMS-variant:
!!!SMS-altvar:
!!!NIFC-rismSourceID: 1001114135
!!!NIFC-rismChildID: 1001114135
!!!NIFC-islandoraID: pl-wtm:30259
!!!URL-pdf-islandora: https://repozytorium.nifc.pl/islandora/object/pl-wtm%3A30259/datastream/PDF/view
!!!URL-scan: https://polish.musicsources.pl/pl/lokalizacje/galeria/rekopisy/6617 @EN{Scan on Polish Music Sources Website} @PL{Skany w portalu Dziedzictwo Muzyki Polskiej w otwartym dostępie}
!!!ONB-nifc:
!!!AIN: 1 empty 1 vox
!!!key:
**kern	**kern	**dynam	**kern	**text	**text	**text	**text	**dynam
*part2	*part2	*part2	*part1	*part1	*part1	*part1	*part1	*part1
*staff3	*staff2	*	*staff1	*staff1	*staff1	*staff1	*staff1	*
*Iempty	*Iforte	*	*Ivox	*	*	*	*	*
*	*I"Fortepian	*	*I"Spiew	*	*	*	*	*
*clefF4	*clefG2	*	*clefG2	*	*	*	*	*
*k[b-]	*k[b-]	*	*k[b-]	*	*	*	*	*
*F:	*F:	*	*F:	*	*	*	*	*
*M4/4	*M4/4	*	*M4/4	*	*	*	*	*
*met(c)	*met(c)	*	*met(c)	*	*	*	*	*
*>[A,B,B]	*>[A,B,B]	*	*>[A,B,B]	*	*	*	*	*
=1	=1	=1	=1	=1	=1	=1	=1	=1
*>A	*>A	*	*>A	*	*	*	*	*
*all\right	*all\right	*	*all\right	*	*	*	*	*
*2\right	*2\right	*	*2\right	*	*	*	*	*
!	!LO:TX:a:i:t=Moderato Maestoso	!	!	!	!	!	!	!
.	8qaa 8qa/	.	.	.	.	.	.	.
!	!	!LO:DY:rj	!	!	!	!	!	!
4C 4CC'</	8.ggL 8.g\	ff	1r	.	.	.	.	.
.	16ff#XJk 16f#X\	.	.	.	.	.	.	.
4e 4c 4B- 4G'<\	8gg 8g\	.	.	.	.	.	.	.
.	8r	.	.	.	.	.	.	.
4C 4CC'</	8aa 8a\	.	.	.	.	.	.	.
.	8r	.	.	.	.	.	.	.
4e 4c 4B- 4G'<\	8bb- 8b-\	.	.	.	.	.	.	.
.	8r	.	.	.	.	.	.	.
=2	=2	=2	=2	=2	=2	=2	=2	=2
.	8qddd 8qdd/	.	.	.	.	.	.	.
4F 4FF'</	8.cccL 8.cc\	.	1r	.	.	.	.	.
.	16bbnJk 16bn\	.	.	.	.	.	.	.
4f 4c 4A'<\	8ccc 8cc\	.	.	.	.	.	.	.
.	8r	.	.	.	.	.	.	.
4F 4FF'</	8ddd 8dd\	.	.	.	.	.	.	.
.	8r	.	.	.	.	.	.	.
4f 4c 4A'<\	8ccc 8cc\	.	.	.	.	.	.	.
.	8r	.	.	.	.	.	.	.
=3	=3	=3	=3	=3	=3	=3	=3	=3
.	8qaa 8qa/	.	.	.	.	.	.	.
4GG 4GGG'</	8.ggL 8.g\	.	1r	.	.	.	.	.
.	16ff#XJk 16f#X\	.	.	.	.	.	.	.
4Bn 4G 4F'<\	8gg 8g\	.	.	.	.	.	.	.
.	8r	.	.	.	.	.	.	.
4GG 4GGG'</	8eee 8ee\	.	.	.	.	.	.	.
.	8r	.	.	.	.	.	.	.
4B 4G 4F'<\	8ddd 8dd\	.	.	.	.	.	.	.
.	8r	.	.	.	.	.	.	.
!!LO:LB:g=original
=4	=4	=4	=4	=4	=4	=4	=4	=4
4C 4CC'</	8gg 8g\	.	1r	.	.	.	.	.
.	8r	.	.	.	.	.	.	.
4c 4B- 4E'<\	8gg#X 8g#X\	.	.	.	.	.	.	.
.	8r	.	.	.	.	.	.	.
4FF'</	4aa 4a\	.	.	.	.	.	.	.
4c 4A 4F'<\	8ff 8f\	.	.	.	.	.	.	.
.	8r	.	.	.	.	.	.	.
=5	=5	=5	=5	=5	=5	=5	=5	=5
.	8qaa 8qa/	.	.	.	.	.	.	.
4C 4CC'</	8.ggL 8.g\	.	1r	.	.	.	.	.
.	16ff#XJk 16f#X\	.	.	.	.	.	.	.
4c 4B- 4E'<\	8gg 8g\	.	.	.	.	.	.	.
.	8r	.	.	.	.	.	.	.
4BB- 4BBB-'</	8aa 8a\	.	.	.	.	.	.	.
.	8r	.	.	.	.	.	.	.
4c 4G 4E'<\	8bb- 8b-\	.	.	.	.	.	.	.
.	8r	.	.	.	.	.	.	.
=6	=6	=6	=6	=6	=6	=6	=6	=6
.	8qddd 8qdd/	.	.	.	.	.	.	.
4AA 4AAA'</	8.cccL 8.cc\	.	1r	.	.	.	.	.
.	16bbnJk 16bn\	.	.	.	.	.	.	.
4c 4A 4F'<\	8ccc 8cc\	.	.	.	.	.	.	.
.	8r	.	.	.	.	.	.	.
4D 4DD'</	8fff 8ff\	.	.	.	.	.	.	.
.	8r	.	.	.	.	.	.	.
4Bn 4A-X 4F'<\	8bbn 8bn\	.	.	.	.	.	.	.
.	8r	.	.	.	.	.	.	.
!!LO:LB:g=original
=7	=7	=7	=7	=7	=7	=7	=7	=7
4C 4CC'</	8dddL 8dd'\	.	1r	.	.	.	.	.
.	8ccc 8cc'\	.	.	.	.	.	.	.
4c 4A 4F'<\	8ff 8f'\	.	.	.	.	.	.	.
.	8ggJ 8g'\	.	.	.	.	.	.	.
4C 4CC'</	8aaL 8a'\	.	.	.	.	.	.	.
.	8cc'\	.	.	.	.	.	.	.
4d 4c 4E'<\	8gg 8g'\	.	.	.	.	.	.	.
.	8cc'\J	.	.	.	.	.	.	.
=8	=8	=8	=8	=8	=8	=8	=8	=8
8c 8A 8F\	8ff 8f\	.	1r;	.	.	.	.	.
8r	8r	.	.	.	.	.	.	.
4r	4r	.	.	.	.	.	.	.
8FF 8FFF/	8fff 8ccc 8aa 8ff\	fz	.	.	.	.	.	.
8r	8r	.	.	.	.	.	.	.
4r;>	4r;>	.	.	.	.	.	.	.
=9!|:	=9!|:	=9!|:	=9!|:	=9!|:	=9!|:	=9!|:	=9!|:	=9!|:
*>B	*>B	*	*>B	*	*	*	*	*
.	8qa/	p	8qa/	.	.	.	.	.
!	!	!	!LO:TX:a:t=P:problem=trzeci wers tekstu słownego w źródle zapisany ołówkiem, nad pięciolinią	!	!	!	!	!
8.cL 8.B- 8.C\	8.gL 8.e/	.	8.g/L	I. Słoń-	II Krzyk	Pię-	.	.
16cJk 16B- 16C\	16f#XJk 16e/	.	16f#X/Jk	.	.	-kna	.	.
8c 8B- 8C\	8g 8e/	.	8g/	-ce	o-	.	.	.
8r	8r	.	8r	.	.	.	.	.
8c 8B- 8C\	8a 8e/	.	8a/	zło-	-ga-	płeć	.	.
8r	8r	.	8r	.	.	.	.	.
8c 8G 8C\	8b- 8e/	.	8b-/	-ty	-ra	.	.	.
8r	8r	.	8r	.	.	.	.	.
!!LO:LB:g=original
=10	=10	=10	=10	=10	=10	=10	=10	=10
.	8qdd/	.	8qdd/	.	.	.	.	.
8.cL 8.A 8.F\	8.ccL 8.f/	.	8.cc\L	glob	co	sta-	.	.
16BnJk 16G#X 16F\	16bnJk 16f/	.	16bn\Jk	.	.	-wia	.	.
8c 8A 8F\	8cc 8f/	.	8cc\	wy-	u-	.	.	.
8r	8r	.	8r	.	.	.	.	.
8d 8A 8F\	8dd 8f/	.	8dd\	-chy-	-ja-	sieć	.	.
8r	8r	.	8r	.	.	.	.	.
8c 8A 8F\	8cc 8f/	.	8cc\	-la,	-da,	.	.	.
8r	8r	.	8r	.	.	.	.	.
=11	=11	=11	=11	=11	=11	=11	=11	=11
.	8qa/	.	8qa/	.	.	.	.	.
8.BnL 8.G\	8.gL 8.f/	.	8.g/L	Wiatr	Krze-	zdra-	.	.
16BJk 16G\	16f#X/Jk	.	16f#X/Jk	.	.	.	.	.
8B 8G\	8g 8fn/	.	8g/	po-	-wów	-dnie	.	.
8r	8r	.	8r	.	.	.	.	.
8B 8G\	8ee 8f/	.	8ee\	-ran-	szum	zdra-	.	.
8r	8r	.	8r	.	.	.	.	.
8B 8G\	8dd 8f/	.	8dd\	-ny	gdy	-dnie	.	.
8r	8r	.	8r	.	.	.	.	.
=12	=12	=12	=12	=12	=12	=12	=12	=12
8B-X 8C\	8g 8e/	.	8g/	z lek-	zwierz	rzu-	.	.
8r	8r	.	8r	.	.	.	.	.
8B- 8C\	8g#X 8e/	.	8g#X/	-ka	po-	-ca	.	.
8r	8r	.	8r	.	.	.	.	.
!	!	!	!	!	!	!	!	!LO:DY:b
4A 4F\	4a 4f/	fz	4a/	wie-	-my-	o-	.	fz
8F 8FF/	8f 8c 8A/	.	8f/	-je,	-ka,	-kiem	.	.
8r	8r	.	8r	.	.	.	.	.
!!LO:PB:g=original
=13	=13	=13	=13	=13	=13	=13	=13	=13
*	*^	*	*	*	*	*	*	*
4D-X 4DD-X/	[>4a-X/	2f\	.	[>4a-X/	wnet	dzik,	wnet	.	.
4d-X 4A-X 4F\	8a-/L]	.	.	8a-/]	.	.	.	.	.
!	!	!	!	!LO:TX:a:t=P:problem=czwarty wers tekstu słownego w źródle zapisany ołówkiem, nad pięciolinią	!	!	!	!	!
.	16a-/L	.	.	16a-/LL	a	on	pa-	ra-	.
.	16b-/JJ	.	.	16b-/JJ	.	.	-dnie	.	.
4AA-X 4AAA-X/	[>4cc/	2e-X\	.	[>4cc\	wnet	dzik,	zwierz	.	.
4c 4A- 4E-X\	8cc/L]	.	.	8cc\]	.	.	.	.	.
.	16a-/L	.	.	16a-/LL	pa-	Strze-	a	-nio-	.
.	16b-/JJ	.	.	16b-/JJ	.	.	.	.	.
=14	=14	=14	=14	=14	=14	=14	=14	=14	=14
4F 4FF\	[>4cc/	2a-X\	.	[>4cc\	.	.	wnet	.	.
4f 4c 4A-X\	8cc/L]	.	.	8cc\]	.	.	.	.	.
.	16cc/L	.	.	16cc\LL	-dnie	-lec	pa-	-ny	.
.	16ddn/JJ	.	.	16ddn\JJ	.	.	-dnie	.	.
4C 4CC/	4ee/	4g\	.	4ee;>\	zwie-	lew!	zwierz	pa-	.
8c 8G 8En 8C\	8r;>	4ryy	.	8cc\	-rzę!	.	.	-dnie	.
8r;>	8c/	.	.	8r	.	.	.	.	.
*	*v	*v	*	*	*	*	*	*	*
=15	=15	=15	=15	=15	=15	=15	=15	=15
!	!LO:TX:b:i:t=Corno poco rit&colon;	!	!	!	!	!	!	!
1r	2g/	.	4r	.	.	.	.	.
.	.	.	8r	.	.	.	.	.
.	.	.	16g/	Sły-	Sły-	.	.	.
.	.	.	16g/	-szysz	-szysz	.	.	.
.	4r	.	[>4cc\	tam?	tam?	.	.	.
.	8r	.	8cc\]	.	.	.	.	.
.	8c/	.	8r	.	.	.	.	.
!!LO:LB:g=original
=16	=16	=16	=16	=16	=16	=16	=16	=16
1r;>	2g/	.	4r	.	.	.	.	.
.	.	.	8r	.	.	.	.	.
.	.	.	16g/	Sły-	Sły-	.	.	.
.	.	.	16g/	-szysz	-szysz	.	.	.
.	4r;>	.	4cc;>\	tam!	tam!	.	.	.
!	!LO:TX:b:i:t=a tempo	!	!LO:N:vis=8	!	!	!	!	!
!	!	!	!LO:TX:a:t=P:problem=od tego momentu czwarty wers tekstu słownego w źródle zapisany ołówkiem, pod pięciolinią	!	!	!	!	!
.	8.dd\L	.	8.dd\L	.	.	.	Dźwię-	.
.	16cc\Jk	.	16cc\Jk	.	.	.	-czą	.
=17	=17	=17	=17	=17	=17	=17	=17	=17
8GG/	8b-/	.	8b-/	Dźwię-	Ro-	a-	ro-	.
8r	8r	.	8r	.	.	.	.	.
8B- 8E 8C\	8e/	.	8e/	-czą	-gów	-mor	-gi	.
8r	8r	.	8r	.	.	.	.	.
8CC/	4e/	.	4e/	ro-	e-	ło-	czas	.
8r	.	.	.	.	.	.	.	.
8B- 8E 8C\	8.a/L	.	8.a/L	-gi	-cho	-trzyk	do	.
8r	.	.	.	.	.	.	.	.
.	16g/Jk	.	16g/Jk	.	.	.	.	.
=18	=18	=18	=18	=18	=18	=18	=18	=18
8FF/	8f/	.	8f/	czas	Brzmi	o-	dro-	.
8r	8r	.	8r	.	.	.	.	.
8A 8F 8C\	8c/	.	8c/	do	po-	-fiar	-gi	.
8r	8r	.	8r	.	.	.	.	.
8AA\	4c/	.	4c/	dro-	-cie-	chciał	Niech	.
8r	.	.	.	.	.	.	.	.
.	8qe/	.	8qe/	.	.	.	.	.
8A 8F 8C\	8.d/L	.	8.d/L	-gi,	-chą,	więc	cię	.
8r	.	.	.	.	.	.	.	.
.	16c/Jk	.	16c/Jk	.	.	.	.	.
!!LO:LB:g=original
=19	=19	=19	=19	=19	=19	=19	=19	=19
8GG/	8Bn/L	.	8Bn/L	Niech	Blas-	jak	tru-	.
8r	8c/J	.	8c/J	cię	-ki	.	-dy	.
8B- 8E 8C\	[<4e/	.	[>4e/	tru-	słoń-	wiatr	nie	.
8r	.	.	.	.	.	.	.	.
8CC/	8e/L]	.	8e/L]	.	.	.	.	.
8r	8g/	.	8g/	-dy	-ca	.	.	.
8B- 8E 8C\	8b-X/	.	8b-X/	Nie	z wol-	po-	za-	.
8r	8g/J	.	8g/J	za-	-na	-niosł	.	.
=20	=20	=20	=20	=20	=20	=20	=20	=20
8FF/	[>4dd\	.	[>4dd\	-trwo-	ga-	strzał	-trwo-	.
8r	.	.	.	.	.	.	.	.
4d 4A-X 4F\	8dd\L]	.	8dd\L]	.	.	.	.	.
.	16cc\L	.	16cc\L	.	.	.	.	.
.	16bn\JJ	.	16bn\JJ	.	.	.	.	.
8c 8A- 8F\	8cc\	.	(>4cc\	-żą	-sną	.	-żą	.
8r	8r	.	.	.	.	.	.	.
!	!	!	!LO:TX:a:t=P:problem="a" w najwyższym wersie zapisane ołówkiem	!	!	!	!	!
8.e\L	8.ee\L	.	8.ee\L)	a	.	a-	Z	.
16d\Jk	16dd\Jk	.	16dd\Jk	.	.	-mor	pieśnią	.
=21	=21	=21	=21	=21	=21	=21	=21	=21
4c\	4cc\	.	4cc'\	Z pie-	Lecz	ło-	w us-	.
4G 4C 4GG/	4e 4c 4B-/	.	4e'/	-śnią	zwy-	-trzyk	-tach	.
4G 4C 4GG/	4e 4c 4B-/	.	4e'/	w u-	-cię-	o-	dziel-	.
8.c\L	8.cc\L	.	8.cc\L	-stach	-ztwo	-fiar	-nie	.
16B-\Jk	16b-\Jk	.	16b-\Jk	.	.	.	.	.
!!LO:LB:g=original
=22	=22	=22	=22	=22	=22	=22	=22	=22
4A\	4a/	.	4a'/	dziel-	świe-	chciał	ho-	.
4F 4C 4FF\	4c 4A/	.	4c'/	-nie	-ci	więc	-żo	.
4F 4C 4FF\	4c 4A/	.	4c/	ho-	ja-	jak	dziel-	.
4r	8.d/L	.	8.d/L	-żo,	-sno,	wiatr	-nie	.
.	16c/Jk	.	16c/Jk	.	.	.	.	.
=23	=23	=23	=23	=23	=23	=23	=23	=23
!	!LO:TUP:b:problem=klamra łukowa	!	!LO:TUP:a:problem=klamra łukowa	!	!	!	!	!
4GG 4GGG/	12Bn/L	.	12Bn/L	w dro-	Chwa-	po-	ho-	.
.	12d/	.	12d/	.	.	.	.	.
.	12f/J	.	12f/J	.	.	.	.	.
4Bn 4G 4F 4D\	8.a/L	.	8.a/L	-gę	-ła,	.	-żo	.
.	16g/Jk	.	16g/Jk	.	.	.	.	.
*	*	*	*Xtuplet	*	*	*	*	*
4C 4CC/	4r	.	12e/L	w dro-	chwa-	.	w dro-	.
.	.	.	12g/	.	.	.	.	.
.	.	.	12b-X/J	.	.	.	.	.
4r;>	8e 8B-X 8G/	.	(>8.dd;>\	.	.	niosł	.	.
.	8r;>	.	.	.	.	.	.	.
.	.	.	16cc\)	-gę	-ła	.	-gę	.
=24	=24	=24	=24	=24	=24	=24	=24	=24
!	!	!LO:DY:rj	!	!	!	!	!	!
4FF 4FFF/	8f 8c 8A/	ff	2f/	nam!	nam!	strzał	nam	.
.	8r	.	.	.	.	.	.	.
8.fL 8.c 8.A 8.F\	4r	.	.	.	.	.	.	.
16fJk 16c 16A 16F\	.	.	.	.	.	.	.	.
4f 4c 4A 4F\	2r	.	2r	.	.	.	.	.
4f 4c 4A 4F\	.	.	.	.	.	.	.	.
!!LO:PB:g=original
=25	=25	=25	=25	=25	=25	=25	=25	=25
.	8qa/	.	8qa/	.	.	.	.	.
8.cL 8.B- 8.C\	8.gL 8.e/	.	8.g/L	Hej	Strzał	U-	.	.
16cJk 16B- 16C\	16f#XJk 16e/	.	16f#X/Jk	.	.	-mie	.	.
8c 8B- 8C\	8g 8e/	.	8g/	my-	po	w lot	.	.
8r	8r	.	8r	.	.	.	.	.
8c 8B- 8C\	8a 8e/	.	8a/	-śli-	strza-	u-	.	.
8r	8r	.	8r	.	.	.	.	.
8c 8G 8C\	8b- 8e/	.	8b-/	-wy	-le	tkać	.	.
8r	8r	.	8r	.	.	.	.	.
=26	=26	=26	=26	=26	=26	=26	=26	=26
.	8qdd/	.	8qdd/	.	.	.	.	.
8.cL 8.A 8.F\	8.ccL 8.f/	.	8.cc\L	Czas	to	grot	.	.
16BnJk 16G#X 16F\	16bnJk 16f/	.	16bn\Jk	.	.	.	.	.
8c 8A 8F\	8cc 8f/	.	8cc\	nam	mu-	kać	.	.
8r	8r	.	8r	.	.	.	.	.
8c 8A 8F\	8cc 8f/	.	8cc\	w Knie-	-zy-	i	.	.
8r	8r	.	8r	.	.	.	.	.
8d 8A 8F\	8dd 8f/	.	8dd\	-je	-ka	pod-	.	.
8r	8r	.	8r	.	.	.	.	.
=27	=27	=27	=27	=27	=27	=27	=27	=27
8c 8A 8E\	[>4ee [>4e/	.	[>4ee\	Chwy-	Co	-bi-	.	.
8r	.	.	.	.	.	.	.	.
8c 8A 8E\	8ee]L 8e/]	.	8ee\L]	.	.	.	.	.
8r	16cc/L	.	16cc\L	-taj	roz-	-jać	.	.
.	16a/JJ	.	16a\JJ	.	.	.	.	.
8d 8G#X 8E\	8e/	.	[>4e/	broń	-grze-	wzro-	.	.
8r	8r	.	.	.	.	.	.	.
8d 8G# 8E\	4r	.	8e/L]	.	.	.	.	.
8r	.	.	16d/L	.	-wa	.	.	.
.	.	.	16Bn/JJ	i	.	.	.	.
!!LO:LB:g=original
=28	=28	=28	=28	=28	=28	=28	=28	=28
!	!	!LO:DY:rj	!	!	!	!	!	!
8AAL 8AAA\	[>4ee [>4e/	ff	4A/	spiesz	krew!	-kiem	.	.
8c 8A 8E\	.	.	.	.	.	.	.	.
8cJ 8A 8E\	8ee]L 8e/]	.	4r	.	.	.	.	.
8r	16cc/L	.	.	.	.	.	.	.
.	16a/JJ	.	.	.	.	.	.	.
8DL 8DD\	[>4ff [>4f/	.	2r	.	.	.	.	.
8d 8A 8F\	.	.	.	.	.	.	.	.
8dJ 8A 8F\	8ff]L 8f/]	.	.	.	.	.	.	.
8r	16dd/L	.	.	.	.	.	.	.
.	16a/JJ	.	.	.	.	.	.	.
=29	=29	=29	=29	=29	=29	=29	=29	=29
4A 4E 4C 4AA/	8eeL 8e/	.	1r	.	.	.	.	.
.	16cc/L	.	.	.	.	.	.	.
.	16a/JJ	.	.	.	.	.	.	.
4Bn 4F 4D\	8dd/L	.	.	.	.	.	.	.
.	16bn/L	.	.	.	.	.	.	.
.	16f/JJ	.	.	.	.	.	.	.
4c 4A 4E\	8cc/L	.	.	.	.	.	.	.
.	16a/L	.	.	.	.	.	.	.
.	16e/JJ	.	.	.	.	.	.	.
4d 4G#X 4E\	8b/L	.	.	.	.	.	.	.
.	16g#X/L	.	.	.	.	.	.	.
.	16e/JJ	.	.	.	.	.	.	.
=30	=30	=30	=30	=30	=30	=30	=30	=30
8c 8A\	8a/	.	2r	.	.	.	.	.
8r	8r	.	.	.	.	.	.	.
8AA 8AAA/	8aa 8ee 8cc 8a\	fz	.	.	.	.	.	.
8r	8r	.	.	.	.	.	.	.
2r	2r	.	4r	.	.	.	.	.
.	.	.	4a/	.	.	.	.	.
!!LO:LB:g=original
=31	=31	=31	=31	=31	=31	=31	=31	=31
.	.	.	16qqa/LL	.	.	.	.	.
!	!LO:N:vis=8	!	!	!	!	!	!	!
.	.	.	16qqb-/JJ	.	.	.	.	.
8E 8EE/	4r	.	8a/	Lecz	Patrz	Wła-	.	.
8r	.	.	8r	.	.	.	.	.
4r	8g 8c 8B-/	.	8g/	pa-	z gęst-	-dze	.	.
.	8ryy	.	8r	.	.	.	.	.
8C 8CC/	4r	.	8dd\	-mię-	-wi-	ma	.	.
8r	.	.	8r	.	.	.	.	.
4r	8g 8c 8B-/	.	8e/	-taj	-ny	.	.	.
.	8r	.	8r	.	.	.	.	.
=32	=32	=32	=32	=32	=32	=32	=32	=32
8F 8FF/	4r	.	8g/	że	dzik	sztu-	.	.
8r	.	.	8r	.	.	.	.	.
4r	8f 8c 8A/	.	[>4f/	tam	wy-	-kę	.	.
.	8r	.	.	.	.	.	.	.
8C 8CC/	4r	.	8f/L]	.	.	.	.	.
8r	.	.	16g/L	.	.	.	.	.
.	.	.	16f/JJ	.	.	.	.	.
4r	8f 8c 8A/	.	8e/L	chwi-	-pa-	zna	.	.
.	8r	.	8d/J	-la	-da	.	.	.
=33	=33	=33	=33	=33	=33	=33	=33	=33
8GG/	16c/LL	.	16c/LL	nie-	Ba-	zwie-	.	.
.	16e/	.	16e/	.	.	.	.	.
8r	16g/	.	16g/	-sie	-czność!	-rza	.	.
.	16b-/JJ	.	16b-/JJ	.	.	.	.	.
8B- 8E 8C\	[>4dd\	.	[>4dd\	wstyd	tru-	struć	.	.
8r	.	.	.	.	.	.	.	.
8CC/	8dd\L]	.	8dd\L]	.	.	.	.	.
8r	16ee\L	.	16ee\L	lub	-pem	.	.	.
.	16dd\JJ	.	16dd\JJ	.	.	.	.	.
8B- 8E 8C\	8cc\L	.	8cc\L	zdo-	go	do	.	.
8r	8b-\J	.	8b-\J	-bi	po-	.	.	.
!!LO:LB:g=original
=34	=34	=34	=34	=34	=34	=34	=34	=34
8FF/	16a\LL	.	16a\LL	chwa-	-ło-	Wła-	.	.
.	16b-\	.	16b-\	.	.	.	.	.
8r	16dd\	.	16dd\	.	.	.	.	.
.	16cc\JJ	.	16cc\JJ	.	.	.	.	.
8A 8F 8C\	8f/	.	4f/	-łą	-żem	-dzie	.	.
8r	8r	.	.	.	.	.	.	.
8C 8CC/	4r	.	4r	.	.	.	.	.
8r	.	.	.	.	.	.	.	.
4r	8f 8c 8A/	.	4a/	.	.	.	.	.
.	8r	.	.	.	.	.	.	.
=35	=35	=35	=35	=35	=35	=35	=35	=35
.	.	.	16qqa/LL	.	.	.	.	.
.	.	.	16qqb-/JJ	.	.	.	.	.
8E 8EE/	4r	.	8a/	Po-	Za-	Badź	.	.
8r	.	.	8r	.	.	.	.	.
4r	8g 8c 8B-/	.	8g/	-dejdź	-czniem	co	.	.
.	8r	.	8r	.	.	.	.	.
.	.	.	8qee/	.	.	.	.	.
8C 8CC/	4r	.	8dd\L	zręcz-	Ku-	badź	.	.
8r	.	.	8cc\J	-nie	-lą	.	.	.
4r	8g 8c 8B-/	.	8g/L	u-	skoń-	na	.	.
.	8r	.	8a/J	-derz	-czem	cel	.	.
=36	=36	=36	=36	=36	=36	=36	=36	=36
8F 8FF/	4r	.	8g/	śmia-	no-	wziaść	.	.
8r	.	.	8r	.	.	.	.	.
4r	8f 8c 8A/	.	4f/	-ło	-żem	.	.	.
.	8r	.	.	.	.	.	.	.
8C 8CC/	4r	.	4r	.	.	.	.	.
8r	.	.	.	.	.	.	.	.
4r	8f 8c 8A/	.	8r	.	.	.	.	.
.	16f/LL	.	16f/LL	a	On	aż	.	.
.	16g-X/JJ	.	16g-X/JJ	.	.	.	.	.
!!LO:PB:g=original
=37	=37	=37	=37	=37	=37	=37	=37	=37
.	8qaa 8qa/	.	.	.	.	.	.	.
4C 4CC/	8.ggL 8.g\	.	1r	.	.	.	.	.
.	16ff#XJk 16f#X\	.	.	.	.	.	.	.
4e 4c 4B- 4G\	8gg 8g\	.	.	.	.	.	.	.
.	8r	.	.	.	.	.	.	.
4C 4CC/	8aa 8a\	.	.	.	.	.	.	.
.	8r	.	.	.	.	.	.	.
4e 4c 4B- 4G\	8bb- 8b-\	.	.	.	.	.	.	.
.	8r	.	.	.	.	.	.	.
=38	=38	=38	=38	=38	=38	=38	=38	=38
.	8qddd 8qdd/	.	.	.	.	.	.	.
4F 4FF/	8.cccL 8.cc\	.	1r	.	.	.	.	.
.	16bbnJk 16bn\	.	.	.	.	.	.	.
4f 4c 4A\	8ccc 8cc\	.	.	.	.	.	.	.
.	8r	.	.	.	.	.	.	.
4F 4FF/	8ddd 8dd\	.	.	.	.	.	.	.
.	8r	.	.	.	.	.	.	.
4f 4c 4A\	8ccc 8cc\	.	.	.	.	.	.	.
.	8r	.	.	.	.	.	.	.
=39	=39	=39	=39	=39	=39	=39	=39	=39
.	8qaa 8qa/	.	.	.	.	.	.	.
4GG 4GGG/	8.ggL 8.g\	.	1r	.	.	.	.	.
.	16ff#XJk 16f#X\	.	.	.	.	.	.	.
4Bn 4G 4F\	8gg 8g\	.	.	.	.	.	.	.
.	8r	.	.	.	.	.	.	.
4GG 4GGG/	8eee 8ee\	.	.	.	.	.	.	.
.	8r	.	.	.	.	.	.	.
4B 4G 4F\	8ddd 8dd\	.	.	.	.	.	.	.
.	8r	.	.	.	.	.	.	.
!!LO:LB:g=original
=40	=40	=40	=40	=40	=40	=40	=40	=40
4C 4CC/	8gg 8g\	.	1r	.	.	.	.	.
.	8r	.	.	.	.	.	.	.
4c 4B- 4E\	8gg#X 8g#X\	.	.	.	.	.	.	.
.	8r	.	.	.	.	.	.	.
4FF/	4aa 4a\	.	.	.	.	.	.	.
4c 4A 4F\	8ff 8f\	.	.	.	.	.	.	.
.	8r	.	.	.	.	.	.	.
=41	=41	=41	=41	=41	=41	=41	=41	=41
.	8qaa 8qa/	.	.	.	.	.	.	.
4C 4CC/	8.ggL 8.g\	.	1r	.	.	.	.	.
.	16ff#XJk 16f#X\	.	.	.	.	.	.	.
4c 4B- 4E\	8gg 8g\	.	.	.	.	.	.	.
.	8r	.	.	.	.	.	.	.
4BB- 4BBB-/	8aa 8a\	.	.	.	.	.	.	.
.	8r	.	.	.	.	.	.	.
4c 4G 4E\	8bb- 8b-\	.	.	.	.	.	.	.
.	8r	.	.	.	.	.	.	.
=42	=42	=42	=42	=42	=42	=42	=42	=42
.	8qddd 8qdd/	.	.	.	.	.	.	.
4AA 4AAA/	8.cccL 8.cc\	.	1r	.	.	.	.	.
.	16bbnJk 16bn\	.	.	.	.	.	.	.
4c 4A 4F\	8ccc 8cc\	.	.	.	.	.	.	.
.	8r	.	.	.	.	.	.	.
4D 4DD/	8fff 8ff\	.	.	.	.	.	.	.
.	8r	.	.	.	.	.	.	.
4Bn 4A-X 4F\	8bbn 8bn\	.	.	.	.	.	.	.
.	8r	.	.	.	.	.	.	.
!!LO:LB:g=original
=43	=43	=43	=43	=43	=43	=43	=43	=43
4C 4CC/	8dddL 8dd'\	.	1r	.	.	.	.	.
.	8ccc 8cc'\	.	.	.	.	.	.	.
4c 4A 4F\	8ff 8f'\	.	.	.	.	.	.	.
.	8ggJ 8g'\	.	.	.	.	.	.	.
4C 4CC/	8aaL 8a'\	.	.	.	.	.	.	.
.	8cc'\	.	.	.	.	.	.	.
4c 4B- 4E\	8gg 8g'\	.	.	.	.	.	.	.
.	8cc'\J	.	.	.	.	.	.	.
=44	=44	=44	=44	=44	=44	=44	=44	=44
8c 8A 8F\	8ff 8f\	.	1r;>	.	.	.	.	.
8r	8r	.	.	.	.	.	.	.
4r	4r	.	.	.	.	.	.	.
8FF 8FFF/	8fff 8ccc 8aa 8ff\	fz	.	.	.	.	.	.
8r	8r	.	.	.	.	.	.	.
4r;>	4r;>	.	.	.	.	.	.	.
!	!LO:TX:a:t=P:problem=w źródle "Fine" zapisane za ostatnim taktem	!	!	!	!	!	!	!
!	!LO:TX:b:i:t=Fine	!	!	!	!	!	!	!
=:|!	=:|!	=:|!	=:|!	=:|!	=:|!	=:|!	=:|!	=:|!
*-	*-	*-	*-	*-	*-	*-	*-	*-
!!!system-decoration: s1{s2,s3}
!!!RDF**kern: > = above
!!!RDF**kern: < = below
!!!EED: Antoni Szymański
!!!EEV: 2021-06-08
!!!ENC: Katarzyna Serwa
!!!END: 2021-05-26
!!!YEC: Copyright 2022 Narodowy Instytut Fryderyka Chopina (https://polishscores.org)
!!!YEM: License CC-BY-4.0 (https://creativecommons.org/licenses/by/4.0)
